X: 94
T: No_54_Dream_of_the_Underground_Bear.krn
N: Derived from No_54_Dream_of_the_Underground_Bear.krn
%%abc-version 2.0
%%abcx-abcm2ps-target-version 5.9.1 (29 Sep 2008)
%%abc-creator hum2abc beta
%%abcx-conversion-date 2019/03/15 08:35:45
%%humdrum-veritas 2950168307
%%humdrum-veritas-data 3322187759
%%linebreak <none>
%%barnumbers 0
L: 1/8
M: 3/4
K: C clef=bass
[K:clef=bass][M:3/4]D2E3/E/ D3/D/ ||  
[M:2/4]C3C ||  
[M:3/4]C4-CG, | 
D2E3/E/ D3/D/ ||  
[M:2/4]C2C3/C/ ||  
[M:3/4]C4z2 ||  
 [K:Eb] [M:2/4]D3/C/ C3/=B,/ [I:setbarnb 8]| 
C4 | 
(3CB,G, B,B,/G,/ ||  
[M:3/4]F,3/F,/ E,3/E,/ C,/C,/ z ||  
[M:2/4]E,/F,3/ F,/E,3/ | 
E,/C,3/ C,3/C,/ | 
C,4 | 
C,2z2 :|]  



